X:1
T:Lauda Anima, 87.87.87
T:Lauda Anima, 87.87.87
T:John Goss, 1869
T:Public Domain Courtesy of the Cyber Hymnal™
C:John Goss, 1869
Z:Public Domain
Z:Courtesy of the Cyber Hymnal™
%%score ( 1 2 ) ( 3 4 )
L:1/8
Q:1/4=115
M:2/4
K:D
V:1 treble 
V:2 treble 
V:3 bass 
V:4 bass 
V:1
 [DA]2 [DA]2 | [CA]2 [CA]2 | [Dd]2 [Ac]2 | B4 | [FA]4 | [DG]2 [DF]2 | [DB]2 [CA]2 | [DF]2 [EG]2 | %8
 [CE]4 | [CF]2 [EF]2 | [DF]3 [CF] | [B,B]2 [B,A]2 | [DA]2 [D^G]2 | [CA]2 [EB]2 | [Ec]3 [Dd] | %15
 [DF]2 [D^G]2 | [CA]4 | d2 c[Dc] | [DB]2 [CA]2 | [Dd]2 c2 | [GB]2 [GA]2 | [FB]2 [EA]2 | %22
 [DG]2 [B,E]2 | [A,D]2 [A,C]2 | [A,D]4 |] %25
V:2
 x4 | x4 | x4 | (A2 G2) | x4 | x4 | x4 | x4 | x4 | x4 | x4 | x4 | x4 | x4 | x4 | x4 | x4 | D3 x | %18
 x4 | x2 (EF) | x4 | x4 | x4 | x4 | x4 |] %25
V:3
 [D,F,]2 [D,F,]2 | [E,G,]2 [E,G,]2 | [F,A,]2 [F,A,]2 | (B,2 C2) | [D,D]4 | [B,,D]2 [D,A,]2 | %6
 [G,,G,]2 [A,,E,]2 | [B,,D,]2 [E,B,]2 | (A,2 G,2) | [^A,,F,]2 [A,,C,]2 | [B,,D,]3 [C,E,] | %11
 [D,F,]2 [^D,B,]2 | [E,B,]2 [^E,B,]2 | [F,A,]2 [E,^G,]2 | A,3 [F,A,] | [D,B,]2 [E,B,]2 | [A,,A,]4 | %17
 [F,A,]3 [F,,A,] | [G,,G,]2 [A,,G,]2 | F,2 (E,[B,,D,]) | [C,E,]2 [C,A,]2 | [D,D]2 C2 | %22
 [G,B,]2 [G,,G,]2 | [A,,F,]2 (E,F,) | [D,F,]4 |] %25
V:4
 x4 | x4 | x4 | G,4 | x4 | x4 | x4 | x4 | A,,4 | x4 | x4 | x4 | x4 | x4 | A,3 x | x4 | x4 | x4 | %18
 x4 | B,,3 x | x4 | x2 (E,F,) | x4 | x2 A,,2 | x4 |] %25

